!!!COM: Bach, Johann Sebastian
!!!CDT: 1685/3//-1750/7/28/
!!!OTL@@DE: O Gott, du frommer Gott
!!!OTL@EN:  O pious God
!!!AGN: 4-Part Chorale
!!!SCT: BH 315
!!!SCT: BWV 399
**harm	**root	**kern	**kern	**kern	**kern
!	!	!bass	!tenor	!alto	!soprno
*	*Iorgan	*Iorgan	*Iorgan	*Iorgan	*Iorgan
*	*	*clefF4	*clefF4	*clefG2	*clefG2
*M4/4	*M4/4	*M4/4	*M4/4	*M4/4	*M4/4
*met(c)	*met(c)	*met(c)	*met(c)	*met(c)	*met(c)
*MM56	*MM56	*MM56	*MM56	*MM56	*MM56
*k[b-e-]	*k[b-e-]	*k[b-e-]	*k[b-e-]	*k[b-e-]	*k[b-e-]
*>[A,A,B]	*>[A,A,B]	*>[A,A,B]	*>[A,A,B]	*>[A,A,B]	*>[A,A,B]
*>A	*>A	*>A	*>A	*>A	*>A
*B-:	*B-:	*B-:	*B-:	*B-:	*B-:
vi	4EE	[4G	8B-	4b-	4dd
.	.	.	8c	.	.
=1	=1	=1	=1	=1	=1
iii7	4.BB	8G]	4.d	4a	4dd
.	.	4F	.	.	.
.	.	.	.	8b-	4gg
vii7Dc	8FF#	8E-	8c	8a	.
Ib	8GG	8D	8d	4b-	4ff
IV	8CC	8E-	8g	.	.
V7	4DD	4F	4f	4a	16ee-
.	.	.	.	.	16dd
.	.	.	.	.	8ee-
=2	=2	=2	=2	=2	=2
I;	2.GG;	2.BB-;	2.f;	2.b-;	2.dd;
I	8GG	8BB-	8f	4b-	8dd
ii7	8AA	8C	8e-	.	8ee-
=3	=3	=3	=3	=3	=3
Ib	4GG	4D	8d	8b-	4ff
.	.	.	8c	8a	.
IV	4CC	[4E-	4B-	8g	4b-
.	.	.	.	16a	.
.	.	.	.	16b-	.
V7d	4DD	8E-]	4f	4a	4cc
.	.	8D	.	.	.
I	4GG	8C	4f	[4b-	4dd
.	.	8BB-	.	.	.
=4	=4	=4	=4	=4	=4
V7	2DD	2F	4.f	8b-]	2cc
.	.	.	.	8g	.
.	.	.	.	4a	.
.	.	.	8e-	.	.
I;	4GG;	4BB-;	4d;	4f;	4b-;
=:|!	=:|!	=:|!	=:|!	=:|!	=:|!
*>B	*>B	*>B	*>B	*>B	*>B
V7d/V	4AA	[4B-	4e	4g	4cc
=5	=5	=5	=5	=5	=5
Vb	4DD	8B-]	4f	4f	4cc
.	.	8A	.	.	.
iiib	4BB	8G	4f	4a	4dd
.	.	8F	.	.	.
IVb	4CC	4G	8e-	4b-	8ee-
.	.	.	8d	.	8gg
vi	8EE	4A	8c	4cc	8ff
V7b	8DD	.	8f	.	8ee-
!!linebreak: 2
=6	=6	=6	=6	=6	=6
I;	2.GG;	2.B-;	2.f;	2.b-;	2.dd;
*F:	*F:	*F:	*F:	*F:	*F:
IV	4GG	4BB-	4f	8b-	4dd
.	.	.	.	8a	.
=7	=7	=7	=7	=7	=7
V7d	8AA	8B-	8e	8g	4cc
Ib	8DD	8A	8c	16f	.
.	.	.	.	16e	.
IV	8GG	8d	8B-	4f	8ff
I	8DD	8c	8A	.	16gg
.	.	.	.	.	16aa
iib	8EE	8B-	8d	8b-	4gg
ii	8EE	8G	8b-	8dd	.
Ic	8DD	4c	8a	8cc	8ff
V	8AA	.	8g	8b-	8ee
=8	=8	=8	=8	=8	=8
I;	2.DD;	2.F;	2.f;	2.a;	2.ff;
*E-:	*E-:	*E-:	*E-:	*E-:	*E-:
V/V	4DD	8f	4a	4cc	4ff
.	.	8e-	.	.	.
=9	=9	=9	=9	=9	=9
Vb	4GG	8d	4b-	4b-	4ff
.	.	8c	.	.	.
V7d	4GG	8B-	4f	4b-	4dd
.	.	8A-	.	.	.
Ib	4CC	8G	4g	4b-	4ee-
.	.	8F	.	.	.
V7b	4GG	8E-	4a-	4b-	4ff
.	.	8D	.	.	.
=10	=10	=10	=10	=10	=10
I;	2.CC;	2.E-;	2.g;	2.b-;	2.gg;
*B-:	*B-:	*B-:	*B-:	*B-:	*B-:
V	4DD	4F	4f	4a	4cc
=11	=11	=11	=11	=11	=11
I	4GG	8BB-	4f	4b-	8dd
.	.	8C	.	.	16ee-
.	.	.	.	.	16ff
IV7	4CC	8D	8f	4b-	8ee-
.	.	8E-	8g	.	8dd
Ic	4GG	4F	4f	4b-	4dd
V7	4DD	4F	4e-	4a	8cc
.	.	.	.	.	8b-
=12	=12	=12	=12	=12	=12
I;	2.GG;	2.BB-;	2.d;	2.f;	2.b-;
==|!	==|!	==|!	==|!	==|!	==|!
*-	*-	*-	*-	*-	*-
!!chor2scor: -l 2 -o %b.pmx
!!!YEC: Copyright 2003 by Craig Stuart Sapp
!!!license: GNU General Public License (http://www.gnu.org/copyleft/gpl.html)
!!!SMA: 371 Bach Chorales, edited by Ludwig Erk, C.F. Peters
!!!PDT: 1850, 1865
!!!ONB: Harmony and Root analysis done manually by Craig Sapp
